X: 138
T: Ayrılık Var Çıkan Falda
C: Selahattin İçli
O: Turkey
F: http://compmusic.upf.edu/node/140
N: muhayyerkurdi--sarki--musemmen--ayrilik_var--selahattin_icli
N: makam= muhayyerkurdi
N: form= sarki
N: usul= musemmen = 8/8
M: 8/8
L: 1/16
K: C _B   
Q: 1/4=222
%%MIDI tuningsystem comma53
a6g2 a2b4a2  | a6g2 a2g2 a2f2  | a6g2 a2b4a2  | \
w:  ARANAĞME  |   |   | 
d'6a4g2 a2f2  | 
w:   | 
e4 g2f2 e2d2 c2B2  | A4 c2B2 c2B4A2  | \
w:   |   | 
e4 g2f2 e2d2 c2B2  | A4 c2B2 c2B4A2  | 
w:   |   | 
d6c2 d2_e4d2  | c6A2 c2B4A2  | d6c2 d2_e4d2  | \
w:   |   |   | 
c6A2 c2B4A2  | A4 A2A2 A2A2 A2A2  | 
w:   |   | 
A4 A2A2 A2A2 A2A2  | A4 A2A2 A2A2 A2A2  | \
w:   |   | 
A4 A2A2 A2A2 A2A2  | 
w:   | 
a4 a2g2 a2b4a2  | a2g2 a2g2 ^3/4f2f4z2  | \
w:  Ay rı lık  *  var   |  çı kan  *  fal *  da    | 
g2a2 f2e2 d2d6  | b2a2 g2^3/4f2 g2a4z2  | 
w:  Si lin *  din  *  sen   |  rü ya *  lar *  da    | 
a4 a2g2 a2b4a2  | a2g2 a2g2 ^3/4f2f4z2  | \
w:  Ay rı lık  *  var   |  çı kan  *  fal *  da    | 
g2a2 f2e2 d2d6  | b2a2 g2^3/4f2 g2a4z2  | 
w:  Si lin *  din  *  sen   |  rü ya *  lar *  da    | 
e2f2 e2d4d4z2  | d2d4^3/4f2 g2a4z2  | \
w:  So lar  *  lâ le   |  ka nar  gül *  ler    | 
e2g4f2 e2d2 c2B2  | c2A2 c2B2 A2A4z2  | 
w:  Se ni  bek *  ler   |  bu  yol *  lar *  da    | 
e2f2 e2d4d4z2  | d2d4^3/4f2 g2a4z2  | \
w:  So lar  *  lâ le   |  ka nar  gül *  ler    | 
e2g4f2 e2d2 c2B2  | c2A2 c2B2 A2A4z2  | 
w:  Se ni  bek *  ler   |  bu  yol *  lar *  da    | 
d2d4c2 d2_e2 d2c2  | c2A2 c2B2 A2A4z2  | \
w:  Mu ra dım *  sın   |  ba har *  la  *  gel    | 
d2d4c2 d2_e2 d2c2  | 
w:  Mu ra dım *  sın   | 
c2A2 c2B2 A2A4z2  | a6g2 a2b4a2  | a6g2 a2g2 a2f2  | \
w:  ba har *  la  *  gel    |  ARANAĞME  |   | 
a6g2 a2b4a2  | 
w:   | 
d'6a4g2 a2f2  | e4 g2f2 e2d2 c2B2  | \
w:   |   | 
A4 c2B2 c2B4A2  | e4 g2f2 e2d2 c2B2  | 
w:   |   | 
A4 c2B2 c2B4A2  | d6c2 d2_e4d2  | c6A2 c2B4A2  | \
w:   |   |   | 
d6c2 d2_e4d2  | 
w:   | 
c6A2 c2B4A2  | A4 A2A2 A2A2 A2A2  | A4 A2A2 A2A2 A2A2  | \
w:   |   |   | 
A4 A2A2 A2A2 A2A2  | 
w:   | 
A4 A2A2 A2A2 A2A2  | A2a4a4b2 a2g2  | \
w:   |  Ge ce  sen siz   | 
a2a4a4a4z2  | a2a4a4g2 f2e2  | 
w:  de niz  ağ lar    |  Ke der len miş   | 
e2e4e4e4z2  | A2a4a4b2 a2g2  | a2a4a4a4z2  | \
w:  si yah  dağ lar    |  Ge ce  sen siz   |  de niz  ağ lar    | 
a2a4a4g2 f2e2  | 
w:  Ke der len miş   | 
e2e4e4e4z2  | d2f4f2 e2f2 e2d2  | b2a2 b2a2 g2f2 e2d2  | \
w:  si yah  dağ lar    |  Ge çer  ay *  lar   |  ge çer  *  yıl *  lar    | 
e2g4e2 d2c2 d2B2  | 
w:  Gö nül  yas *  lı   | 
c2A2 c2B2 A2A4z2  | d2f4f2 e2f2 e2d2  | \
w:  ka ra  *  bağ *  lar    |  Ge çer  ay *  lar   | 
b2a2 b2a2 g2f2 e2d2  | 
w:  ge çer  *  yıl *  lar    | 
e2g4e2 d2c2 d2B2  | c2A2 c2B2 A2A4z2  | \
w:  Gö nül  yas *  lı   |  ka ra  *  bağ *  lar    | 
d2d4c2 d2_e2 d2c2  | 
w:  Sa ba hım *  sın   | 
c2A2 c2B2 A2A4z2  | d2d4c2 d2_e2 d2c2  | \
w:  se her *  le  *  gel    |  Sa ba hım *  sın   | 
c2A2 c2B2 A2A4z2  | 
w:  se her *  le  *  gel    | 
a6g2 a2b4a2  | a6g2 a2g2 a2f2  | a6g2 a2b4a2  | \
w:  ARANAĞME  |   |   | 
d'6a4g2 a2f2  | 
w:   | 
e4 g2f2 e2d2 c2B2  | A4 c2B2 c2B4A2  | \
w:   |   | 
e4 g2f2 e2d2 c2B2  | A4 c2B2 c2B4A2  | 
w:   |   | 
d6c2 d2_e4d2  | c6A2 c2B4A2  | d6c2 d2_e4d2  | \
w:   |   |   | 
c6A2 c2B4A2  | A4 A2A2 A2A2 A2A2  | 
w:   |   | 
A4 A2A2 A2A2 A2A2  | A4 A2A2 A2A2 A2A2  | \
w:   |   | 
A4 A2A2 A2A2 A2A2  | 
w:   | 
a2d'4c'2 d'2b2 a2g2  | a2a4a4a4z2  | \
w:  Ve fâ  yok *  tur   |  gü zel ler de    | 
=b2a2 g2g2 ^3/4f2f4e2  | e2e4e4e4z2  | 
w:  De nir  *  gel *  mez   |  ü zer ler de    | 
a2d'4c'2 d'2b2 a2g2  | a2a4a4a4z2  | \
w:  Ve fâ  yok *  tur   |  gü zel ler de    | 
=b2a2 g2g2 ^3/4f2f4e2  | e2e4e4e4z2  | 
w:  De nir  *  gel *  mez   |  ü zer ler de    | 
e2f2 e2d4d4z2  | c2c4c4c6  | B2B4B4B6  | \
w:  Sa rar *  dım  bak   |  e sen  yel ler    |  Ya zar  has ret   | 
A2A4A4A6  | e2f2 e2d4d4z2  | 
w:  ka der ler de    |  Sa rar *  dım  bak   | 
c2c4c4c6  | B2B4B4B6  | A2A4A4A6  | d2d4c2 d2_e2 d2c2  | \
w:  e sen  yel ler    |  Ya zar  has ret   |  ka der ler de    |  Ne  o lur *  sun   | 
c2A2 c2B2 A2A4z2  | 
w:  ha zan *  la  *  gel    | 
d2d4c2 d2_e2 d2c2  | c2A2 c2B2 A2A4z2  | \
w:  Ne  o lur *  sun   |  ha zan *  la  *  gel    | 
A4 A2A2 A2A2 A2A2  | 
w:  SAZ  | 
A4 A2A2 A2A2 A2A2  | A4 A2A2 A2A2 A2A2  | A16  | |


